images/3233179.svg

<?xml version="1.0" encoding="UTF-8"?>
<svg xmlns="http://www.w3.org/2000/svg" xmlns:xlink="http://www.w3.org/1999/xlink" width="300pt" height="300pt" viewBox="0 0 300 300" version="1.1">
<defs>
<g>
<symbol overflow="visible" id="glyph0-0">
<path style="stroke:none;" d="M 0.453125 1.59375 L 0.453125 -6.34375 L 4.953125 -6.34375 L 4.953125 1.59375 Z M 0.953125 1.09375 L 4.453125 1.09375 L 4.453125 -5.84375 L 0.953125 -5.84375 Z M 0.953125 1.09375 "/>
</symbol>
<symbol overflow="visible" id="glyph0-1">
<path style="stroke:none;" d="M 0.890625 -6.5625 L 2.078125 -6.5625 L 4.984375 -1.078125 L 4.984375 -6.5625 L 5.84375 -6.5625 L 5.84375 0 L 4.65625 0 L 1.75 -5.484375 L 1.75 0 L 0.890625 0 Z M 0.890625 -6.5625 "/>
</symbol>
<symbol overflow="visible" id="glyph0-2">
<path style="stroke:none;" d="M 3.546875 -5.953125 C 2.898438 -5.953125 2.382812 -5.710938 2 -5.234375 C 1.625 -4.753906 1.4375 -4.101562 1.4375 -3.28125 C 1.4375 -2.445312 1.625 -1.789062 2 -1.3125 C 2.382812 -0.832031 2.898438 -0.59375 3.546875 -0.59375 C 4.191406 -0.59375 4.703125 -0.832031 5.078125 -1.3125 C 5.453125 -1.789062 5.640625 -2.445312 5.640625 -3.28125 C 5.640625 -4.101562 5.453125 -4.753906 5.078125 -5.234375 C 4.703125 -5.710938 4.191406 -5.953125 3.546875 -5.953125 Z M 3.546875 -6.6875 C 4.460938 -6.6875 5.195312 -6.375 5.75 -5.75 C 6.300781 -5.132812 6.578125 -4.3125 6.578125 -3.28125 C 6.578125 -2.238281 6.300781 -1.410156 5.75 -0.796875 C 5.195312 -0.179688 4.460938 0.125 3.546875 0.125 C 2.617188 0.125 1.878906 -0.179688 1.328125 -0.796875 C 0.773438 -1.410156 0.5 -2.238281 0.5 -3.28125 C 0.5 -4.3125 0.773438 -5.132812 1.328125 -5.75 C 1.878906 -6.375 2.617188 -6.6875 3.546875 -6.6875 Z M 3.546875 -6.6875 "/>
</symbol>
</g>
</defs>
<g id="surface34649">
<rect x="0" y="0" width="300" height="300" style="fill:rgb(100%,100%,100%);fill-opacity:1;stroke:none;"/>
<path style="fill:none;stroke-width:1.2;stroke-linecap:butt;stroke-linejoin:miter;stroke:rgb(0%,0%,0%);stroke-opacity:1;stroke-miterlimit:10;" d="M 56.863281 210.222656 L 62.429688 201.011719 "/>
<path style="fill:none;stroke-width:1.2;stroke-linecap:butt;stroke-linejoin:miter;stroke:rgb(0%,0%,100%);stroke-opacity:1;stroke-miterlimit:10;" d="M 62.429688 201.011719 L 67.992188 191.804688 "/>
<path style="fill:none;stroke-width:1.2;stroke-linecap:butt;stroke-linejoin:miter;stroke:rgb(0%,0%,100%);stroke-opacity:1;stroke-miterlimit:10;" d="M 67.992188 191.804688 L 78.710938 190.894531 "/>
<path style="fill:none;stroke-width:1.2;stroke-linecap:butt;stroke-linejoin:miter;stroke:rgb(0%,0%,0%);stroke-opacity:1;stroke-miterlimit:10;" d="M 78.710938 190.894531 L 89.433594 189.980469 "/>
<path style="fill:none;stroke-width:1.2;stroke-linecap:butt;stroke-linejoin:miter;stroke:rgb(0%,0%,0%);stroke-opacity:1;stroke-miterlimit:10;" d="M 59.632812 171.976562 L 63.8125 181.890625 "/>
<path style="fill:none;stroke-width:1.2;stroke-linecap:butt;stroke-linejoin:miter;stroke:rgb(0%,0%,100%);stroke-opacity:1;stroke-miterlimit:10;" d="M 63.8125 181.890625 L 67.992188 191.804688 "/>
<path style=" stroke:none;fill-rule:nonzero;fill:rgb(100%,100%,100%);fill-opacity:1;" d="M 64.992188 186.304688 L 71.992188 186.304688 L 71.992188 197.304688 L 64.992188 197.304688 Z M 64.992188 186.304688 "/>
<g style="fill:rgb(0%,0%,100%);fill-opacity:1;">
  <use xlink:href="#glyph0-1" x="64.992188" y="194.967773"/>
</g>
<path style="fill:none;stroke-width:1.2;stroke-linecap:butt;stroke-linejoin:miter;stroke:rgb(0%,0%,0%);stroke-opacity:1;stroke-miterlimit:10;" d="M 89.433594 189.980469 L 94.324219 169.027344 "/>
<path style="fill:none;stroke-width:1.2;stroke-linecap:butt;stroke-linejoin:miter;stroke:rgb(0%,0%,0%);stroke-opacity:1;stroke-miterlimit:10;" d="M 84.992188 186.734375 L 88.90625 169.972656 "/>
<path style="fill:none;stroke-width:1.2;stroke-linecap:butt;stroke-linejoin:miter;stroke:rgb(0%,0%,0%);stroke-opacity:1;stroke-miterlimit:10;" d="M 94.324219 169.027344 L 75.90625 157.898438 "/>
<path style="fill:none;stroke-width:1.2;stroke-linecap:butt;stroke-linejoin:miter;stroke:rgb(0%,0%,0%);stroke-opacity:1;stroke-miterlimit:10;" d="M 94.324219 169.027344 L 114.152344 160.667969 "/>
<path style="fill:none;stroke-width:1.2;stroke-linecap:butt;stroke-linejoin:miter;stroke:rgb(0%,0%,0%);stroke-opacity:1;stroke-miterlimit:10;" d="M 75.90625 157.898438 L 71.851562 136.765625 "/>
<path style="fill:none;stroke-width:1.2;stroke-linecap:butt;stroke-linejoin:miter;stroke:rgb(0%,0%,0%);stroke-opacity:1;stroke-miterlimit:10;" d="M 70.527344 156.738281 L 67.285156 139.835938 "/>
<path style="fill:none;stroke-width:1.2;stroke-linecap:butt;stroke-linejoin:miter;stroke:rgb(0%,0%,0%);stroke-opacity:1;stroke-miterlimit:10;" d="M 59.632812 171.976562 L 75.90625 157.898438 "/>
<path style="fill:none;stroke-width:1.2;stroke-linecap:butt;stroke-linejoin:miter;stroke:rgb(0%,0%,0%);stroke-opacity:1;stroke-miterlimit:10;" d="M 71.851562 136.765625 L 51.523438 129.710938 "/>
<path style="fill:none;stroke-width:1.2;stroke-linecap:butt;stroke-linejoin:miter;stroke:rgb(0%,0%,0%);stroke-opacity:1;stroke-miterlimit:10;" d="M 51.523438 129.710938 L 35.25 143.789062 "/>
<path style="fill:none;stroke-width:1.2;stroke-linecap:butt;stroke-linejoin:miter;stroke:rgb(0%,0%,0%);stroke-opacity:1;stroke-miterlimit:10;" d="M 53.207031 134.949219 L 40.191406 146.210938 "/>
<path style="fill:none;stroke-width:1.2;stroke-linecap:butt;stroke-linejoin:miter;stroke:rgb(0%,0%,0%);stroke-opacity:1;stroke-miterlimit:10;" d="M 35.25 143.789062 L 39.304688 164.921875 "/>
<path style="fill:none;stroke-width:1.2;stroke-linecap:butt;stroke-linejoin:miter;stroke:rgb(0%,0%,0%);stroke-opacity:1;stroke-miterlimit:10;" d="M 39.304688 164.921875 L 59.632812 171.976562 "/>
<path style="fill:none;stroke-width:1.2;stroke-linecap:butt;stroke-linejoin:miter;stroke:rgb(0%,0%,0%);stroke-opacity:1;stroke-miterlimit:10;" d="M 42.996094 160.84375 L 59.261719 166.488281 "/>
<path style="fill:none;stroke-width:1.2;stroke-linecap:butt;stroke-linejoin:miter;stroke:rgb(0%,0%,0%);stroke-opacity:1;stroke-miterlimit:10;" d="M 114.152344 160.667969 L 122.726562 167.164062 "/>
<path style="fill:none;stroke-width:1.2;stroke-linecap:butt;stroke-linejoin:miter;stroke:rgb(0%,0%,100%);stroke-opacity:1;stroke-miterlimit:10;" d="M 122.726562 167.164062 L 131.304688 173.660156 "/>
<path style="fill:none;stroke-width:1.2;stroke-linecap:butt;stroke-linejoin:miter;stroke:rgb(0%,0%,0%);stroke-opacity:1;stroke-miterlimit:10;" d="M 118.925781 157.929688 L 125.785156 163.128906 "/>
<path style="fill:none;stroke-width:1.2;stroke-linecap:butt;stroke-linejoin:miter;stroke:rgb(0%,0%,100%);stroke-opacity:1;stroke-miterlimit:10;" d="M 125.785156 163.128906 L 132.648438 168.324219 "/>
<path style="fill:none;stroke-width:1.2;stroke-linecap:butt;stroke-linejoin:miter;stroke:rgb(0%,0%,0%);stroke-opacity:1;stroke-miterlimit:10;" d="M 116.824219 139.316406 L 114.152344 160.667969 "/>
<path style="fill:none;stroke-width:1.2;stroke-linecap:butt;stroke-linejoin:miter;stroke:rgb(0%,0%,100%);stroke-opacity:1;stroke-miterlimit:10;" d="M 131.304688 173.660156 L 141.21875 169.480469 "/>
<path style="fill:none;stroke-width:1.2;stroke-linecap:butt;stroke-linejoin:miter;stroke:rgb(0%,0%,0%);stroke-opacity:1;stroke-miterlimit:10;" d="M 141.21875 169.480469 L 151.132812 165.300781 "/>
<path style=" stroke:none;fill-rule:nonzero;fill:rgb(100%,100%,100%);fill-opacity:1;" d="M 128.304688 168.160156 L 135.304688 168.160156 L 135.304688 179.160156 L 128.304688 179.160156 Z M 128.304688 168.160156 "/>
<g style="fill:rgb(0%,0%,100%);fill-opacity:1;">
  <use xlink:href="#glyph0-1" x="128.304688" y="176.823242"/>
</g>
<path style="fill:none;stroke-width:1.2;stroke-linecap:butt;stroke-linejoin:miter;stroke:rgb(0%,0%,0%);stroke-opacity:1;stroke-miterlimit:10;" d="M 151.132812 165.300781 L 168.285156 178.289062 "/>
<path style="fill:none;stroke-width:1.2;stroke-linecap:butt;stroke-linejoin:miter;stroke:rgb(0%,0%,0%);stroke-opacity:1;stroke-miterlimit:10;" d="M 155.90625 162.5625 L 169.628906 172.957031 "/>
<path style="fill:none;stroke-width:1.2;stroke-linecap:butt;stroke-linejoin:miter;stroke:rgb(0%,0%,0%);stroke-opacity:1;stroke-miterlimit:10;" d="M 153.808594 143.949219 L 151.132812 165.300781 "/>
<path style="fill:none;stroke-width:1.2;stroke-linecap:butt;stroke-linejoin:miter;stroke:rgb(0%,0%,0%);stroke-opacity:1;stroke-miterlimit:10;" d="M 168.285156 178.289062 L 178.199219 174.109375 "/>
<path style="fill:none;stroke-width:1.2;stroke-linecap:butt;stroke-linejoin:miter;stroke:rgb(0%,0%,100%);stroke-opacity:1;stroke-miterlimit:10;" d="M 178.199219 174.109375 L 188.113281 169.929688 "/>
<path style="fill:none;stroke-width:1.2;stroke-linecap:butt;stroke-linejoin:miter;stroke:rgb(0%,0%,100%);stroke-opacity:1;stroke-miterlimit:10;" d="M 188.113281 169.929688 L 189.449219 159.257812 "/>
<path style="fill:none;stroke-width:1.2;stroke-linecap:butt;stroke-linejoin:miter;stroke:rgb(0%,0%,0%);stroke-opacity:1;stroke-miterlimit:10;" d="M 189.449219 159.257812 L 190.789062 148.582031 "/>
<path style="fill:none;stroke-width:1.2;stroke-linecap:butt;stroke-linejoin:miter;stroke:rgb(0%,0%,100%);stroke-opacity:1;stroke-miterlimit:10;" d="M 183.355469 167.167969 L 184.425781 158.625 "/>
<path style="fill:none;stroke-width:1.2;stroke-linecap:butt;stroke-linejoin:miter;stroke:rgb(0%,0%,0%);stroke-opacity:1;stroke-miterlimit:10;" d="M 184.425781 158.625 L 185.496094 150.085938 "/>
<path style=" stroke:none;fill-rule:nonzero;fill:rgb(100%,100%,100%);fill-opacity:1;" d="M 185.113281 164.429688 L 192.113281 164.429688 L 192.113281 175.429688 L 185.113281 175.429688 Z M 185.113281 164.429688 "/>
<g style="fill:rgb(0%,0%,100%);fill-opacity:1;">
  <use xlink:href="#glyph0-1" x="185.113281" y="173.092773"/>
</g>
<path style="fill:none;stroke-width:1.2;stroke-linecap:butt;stroke-linejoin:miter;stroke:rgb(0%,0%,0%);stroke-opacity:1;stroke-miterlimit:10;" d="M 190.789062 148.582031 L 182.210938 142.085938 "/>
<path style="fill:none;stroke-width:1.2;stroke-linecap:butt;stroke-linejoin:miter;stroke:rgb(0%,0%,100%);stroke-opacity:1;stroke-miterlimit:10;" d="M 182.210938 142.085938 L 173.632812 135.589844 "/>
<path style="fill:none;stroke-width:1.2;stroke-linecap:butt;stroke-linejoin:miter;stroke:rgb(0%,0%,0%);stroke-opacity:1;stroke-miterlimit:10;" d="M 190.789062 148.582031 L 200.703125 144.402344 "/>
<path style="fill:none;stroke-width:1.2;stroke-linecap:butt;stroke-linejoin:miter;stroke:rgb(100%,0%,0%);stroke-opacity:1;stroke-miterlimit:10;" d="M 200.703125 144.402344 L 210.617188 140.222656 "/>
<path style="fill:none;stroke-width:1.2;stroke-linecap:butt;stroke-linejoin:miter;stroke:rgb(0%,0%,100%);stroke-opacity:1;stroke-miterlimit:10;" d="M 173.632812 135.589844 L 163.722656 139.769531 "/>
<path style="fill:none;stroke-width:1.2;stroke-linecap:butt;stroke-linejoin:miter;stroke:rgb(0%,0%,0%);stroke-opacity:1;stroke-miterlimit:10;" d="M 163.722656 139.769531 L 153.808594 143.949219 "/>
<path style="fill:none;stroke-width:1.2;stroke-linecap:butt;stroke-linejoin:miter;stroke:rgb(0%,0%,100%);stroke-opacity:1;stroke-miterlimit:10;" d="M 173.617188 141.089844 L 165.6875 144.433594 "/>
<path style="fill:none;stroke-width:1.2;stroke-linecap:butt;stroke-linejoin:miter;stroke:rgb(0%,0%,0%);stroke-opacity:1;stroke-miterlimit:10;" d="M 165.6875 144.433594 L 157.757812 147.777344 "/>
<path style=" stroke:none;fill-rule:nonzero;fill:rgb(100%,100%,100%);fill-opacity:1;" d="M 170.632812 130.089844 L 177.632812 130.089844 L 177.632812 141.089844 L 170.632812 141.089844 Z M 170.632812 130.089844 "/>
<g style="fill:rgb(0%,0%,100%);fill-opacity:1;">
  <use xlink:href="#glyph0-1" x="170.632812" y="138.75293"/>
</g>
<path style="fill:none;stroke-width:1.2;stroke-linecap:butt;stroke-linejoin:miter;stroke:rgb(0%,0%,0%);stroke-opacity:1;stroke-miterlimit:10;" d="M 153.808594 143.949219 L 145.230469 137.453125 "/>
<path style="fill:none;stroke-width:1.2;stroke-linecap:butt;stroke-linejoin:miter;stroke:rgb(0%,0%,100%);stroke-opacity:1;stroke-miterlimit:10;" d="M 145.230469 137.453125 L 136.652344 130.957031 "/>
<path style="fill:none;stroke-width:1.2;stroke-linecap:butt;stroke-linejoin:miter;stroke:rgb(0%,0%,100%);stroke-opacity:1;stroke-miterlimit:10;" d="M 136.652344 130.957031 L 126.738281 135.136719 "/>
<path style="fill:none;stroke-width:1.2;stroke-linecap:butt;stroke-linejoin:miter;stroke:rgb(0%,0%,0%);stroke-opacity:1;stroke-miterlimit:10;" d="M 126.738281 135.136719 L 116.824219 139.316406 "/>
<path style="fill:none;stroke-width:1.2;stroke-linecap:butt;stroke-linejoin:miter;stroke:rgb(0%,0%,100%);stroke-opacity:1;stroke-miterlimit:10;" d="M 136.652344 130.957031 L 137.992188 120.28125 "/>
<path style="fill:none;stroke-width:1.2;stroke-linecap:butt;stroke-linejoin:miter;stroke:rgb(0%,0%,0%);stroke-opacity:1;stroke-miterlimit:10;" d="M 137.992188 120.28125 L 139.328125 109.605469 "/>
<path style=" stroke:none;fill-rule:nonzero;fill:rgb(100%,100%,100%);fill-opacity:1;" d="M 133.652344 125.457031 L 140.652344 125.457031 L 140.652344 136.457031 L 133.652344 136.457031 Z M 133.652344 125.457031 "/>
<g style="fill:rgb(0%,0%,100%);fill-opacity:1;">
  <use xlink:href="#glyph0-1" x="133.652344" y="134.120117"/>
</g>
<path style="fill:none;stroke-width:1.2;stroke-linecap:butt;stroke-linejoin:miter;stroke:rgb(0%,0%,0%);stroke-opacity:1;stroke-miterlimit:10;" d="M 118.355469 137.296875 L 109.777344 130.800781 "/>
<path style="fill:none;stroke-width:1.2;stroke-linecap:butt;stroke-linejoin:miter;stroke:rgb(100%,0%,0%);stroke-opacity:1;stroke-miterlimit:10;" d="M 109.777344 130.800781 L 101.203125 124.308594 "/>
<path style="fill:none;stroke-width:1.2;stroke-linecap:butt;stroke-linejoin:miter;stroke:rgb(0%,0%,0%);stroke-opacity:1;stroke-miterlimit:10;" d="M 115.296875 141.335938 L 106.722656 134.839844 "/>
<path style="fill:none;stroke-width:1.2;stroke-linecap:butt;stroke-linejoin:miter;stroke:rgb(100%,0%,0%);stroke-opacity:1;stroke-miterlimit:10;" d="M 106.722656 134.839844 L 98.144531 128.34375 "/>
<path style=" stroke:none;fill-rule:nonzero;fill:rgb(100%,100%,100%);fill-opacity:1;" d="M 91.671875 120.824219 L 99.671875 120.824219 L 99.671875 131.824219 L 91.671875 131.824219 Z M 91.671875 120.824219 "/>
<g style="fill:rgb(100%,0%,0%);fill-opacity:1;">
  <use xlink:href="#glyph0-2" x="91.671875" y="129.487305"/>
</g>
<path style="fill:none;stroke-width:1.2;stroke-linecap:butt;stroke-linejoin:miter;stroke:rgb(0%,0%,0%);stroke-opacity:1;stroke-miterlimit:10;" d="M 139.328125 109.605469 L 130.96875 89.777344 "/>
<path style="fill:none;stroke-width:1.2;stroke-linecap:butt;stroke-linejoin:miter;stroke:rgb(0%,0%,0%);stroke-opacity:1;stroke-miterlimit:10;" d="M 152.320312 92.453125 L 139.328125 109.605469 "/>
<path style="fill:none;stroke-width:1.2;stroke-linecap:butt;stroke-linejoin:miter;stroke:rgb(0%,0%,0%);stroke-opacity:1;stroke-miterlimit:10;" d="M 130.96875 89.777344 L 152.320312 92.453125 "/>
<path style="fill:none;stroke-width:1.2;stroke-linecap:butt;stroke-linejoin:miter;stroke:rgb(100%,0%,0%);stroke-opacity:1;stroke-miterlimit:10;" d="M 210.617188 140.222656 L 219.191406 146.71875 "/>
<path style="fill:none;stroke-width:1.2;stroke-linecap:butt;stroke-linejoin:miter;stroke:rgb(0%,0%,0%);stroke-opacity:1;stroke-miterlimit:10;" d="M 219.191406 146.71875 L 227.769531 153.210938 "/>
<path style=" stroke:none;fill-rule:nonzero;fill:rgb(100%,100%,100%);fill-opacity:1;" d="M 206.617188 134.722656 L 214.617188 134.722656 L 214.617188 145.722656 L 206.617188 145.722656 Z M 206.617188 134.722656 "/>
<g style="fill:rgb(100%,0%,0%);fill-opacity:1;">
  <use xlink:href="#glyph0-2" x="206.617188" y="143.385742"/>
</g>
<path style="fill:none;stroke-width:1.2;stroke-linecap:butt;stroke-linejoin:miter;stroke:rgb(0%,0%,0%);stroke-opacity:1;stroke-miterlimit:10;" d="M 227.769531 153.210938 L 225.09375 174.5625 "/>
<path style="fill:none;stroke-width:1.2;stroke-linecap:butt;stroke-linejoin:miter;stroke:rgb(0%,0%,0%);stroke-opacity:1;stroke-miterlimit:10;" d="M 232.523438 155.976562 L 230.386719 173.058594 "/>
<path style="fill:none;stroke-width:1.2;stroke-linecap:butt;stroke-linejoin:miter;stroke:rgb(0%,0%,0%);stroke-opacity:1;stroke-miterlimit:10;" d="M 247.597656 144.851562 L 227.769531 153.210938 "/>
<path style="fill:none;stroke-width:1.2;stroke-linecap:butt;stroke-linejoin:miter;stroke:rgb(0%,0%,0%);stroke-opacity:1;stroke-miterlimit:10;" d="M 225.09375 174.5625 L 242.246094 187.554688 "/>
<path style="fill:none;stroke-width:1.2;stroke-linecap:butt;stroke-linejoin:miter;stroke:rgb(0%,0%,0%);stroke-opacity:1;stroke-miterlimit:10;" d="M 242.246094 187.554688 L 262.074219 179.195312 "/>
<path style="fill:none;stroke-width:1.2;stroke-linecap:butt;stroke-linejoin:miter;stroke:rgb(0%,0%,0%);stroke-opacity:1;stroke-miterlimit:10;" d="M 242.265625 182.054688 L 258.125 175.367188 "/>
<path style="fill:none;stroke-width:1.2;stroke-linecap:butt;stroke-linejoin:miter;stroke:rgb(0%,0%,0%);stroke-opacity:1;stroke-miterlimit:10;" d="M 262.074219 179.195312 L 264.75 157.84375 "/>
<path style="fill:none;stroke-width:1.2;stroke-linecap:butt;stroke-linejoin:miter;stroke:rgb(0%,0%,0%);stroke-opacity:1;stroke-miterlimit:10;" d="M 264.75 157.84375 L 247.597656 144.851562 "/>
<path style="fill:none;stroke-width:1.2;stroke-linecap:butt;stroke-linejoin:miter;stroke:rgb(0%,0%,0%);stroke-opacity:1;stroke-miterlimit:10;" d="M 259.976562 160.582031 L 246.253906 150.1875 "/>
</g>
</svg>

<svg xmlns="http://www.w3.org/2000/svg" xmlns:xlink="http://www.w3.org/1999/xlink" width="300pt" height="300pt" viewBox="0 0 300 300"><defs><symbol overflow="visible"><path d="M.453 1.594v-7.938h4.5v7.938zm.5-.5h3.5v-6.938h-3.5zm0 0"/></symbol><symbol overflow="visible" id="a"><path d="M.89-6.563H2.08l2.906 5.485v-5.484h.86V0H4.656L1.75-5.484V0H.89zm0 0"/></symbol><symbol overflow="visible" id="b"><path d="M3.547-5.953c-.65 0-1.164.242-1.547.72-.375.48-.563 1.13-.563 1.952 0 .835.188 1.49.563 1.967.383.48.898.72 1.547.72.644 0 1.156-.24 1.53-.72.376-.476.564-1.132.564-1.968 0-.822-.187-1.474-.562-1.954-.375-.477-.887-.72-1.53-.72zm0-.734c.914 0 1.648.312 2.203.937.55.617.828 1.438.828 2.47 0 1.042-.277 1.87-.828 2.483-.555.617-1.29.922-2.203.922-.93 0-1.668-.305-2.22-.922C.774-1.41.5-2.237.5-3.28c0-1.033.273-1.853.828-2.47.55-.625 1.29-.938 2.22-.938zm0 0"/></symbol></defs><g><path fill="#fff" d="M0 0h300v300H0z"/><path d="M56.863 210.223l5.567-9.21" stroke-width="1.2" stroke="#000" stroke-miterlimit="10" fill="none"/><path d="M62.43 201.012l5.562-9.207M67.992 191.805l10.72-.91" stroke-width="1.2" stroke="#00f" stroke-miterlimit="10" fill="none"/><path d="M78.71 190.895l10.724-.915M59.633 171.977l4.18 9.914" stroke-width="1.2" stroke="#000" stroke-miterlimit="10" fill="none"/><path d="M63.813 181.89l4.18 9.915" stroke-width="1.2" stroke="#00f" stroke-miterlimit="10" fill="none"/><path d="M64.992 186.305h7v11h-7zm0 0" fill="#fff"/><use xlink:href="#a" x="64.992" y="194.968" fill="#00f"/><path d="M89.434 189.98l4.89-20.953M84.992 186.734l3.914-16.76M94.324 169.027l-18.418-11.13M94.324 169.027l19.828-8.36M75.906 157.898l-4.054-21.132M70.527 156.738l-3.242-16.902M59.633 171.977l16.273-14.08M71.852 136.766l-20.33-7.055M51.523 129.71L35.25 143.79M53.207 134.95L40.19 146.21M35.25 143.79l4.055 21.132M39.305 164.922l20.328 7.055M42.996 160.844l16.266 5.644M114.152 160.668l8.575 6.496" stroke-width="1.2" stroke="#000" stroke-miterlimit="10" fill="none"/><path d="M122.727 167.164l8.578 6.496" stroke-width="1.2" stroke="#00f" stroke-miterlimit="10" fill="none"/><path d="M118.926 157.93l6.86 5.2" stroke-width="1.2" stroke="#000" stroke-miterlimit="10" fill="none"/><path d="M125.785 163.13l6.863 5.194" stroke-width="1.2" stroke="#00f" stroke-miterlimit="10" fill="none"/><path d="M116.824 139.316l-2.672 21.352" stroke-width="1.2" stroke="#000" stroke-miterlimit="10" fill="none"/><path d="M131.305 173.66l9.914-4.18" stroke-width="1.2" stroke="#00f" stroke-miterlimit="10" fill="none"/><path d="M141.22 169.48l9.913-4.18" stroke-width="1.2" stroke="#000" stroke-miterlimit="10" fill="none"/><path d="M128.305 168.16h7v11h-7zm0 0" fill="#fff"/><use xlink:href="#a" x="128.305" y="176.823" fill="#00f"/><path d="M151.133 165.3l17.152 12.99M155.906 162.563l13.723 10.394M153.81 143.95l-2.677 21.35M168.285 178.29l9.914-4.18" stroke-width="1.2" stroke="#000" stroke-miterlimit="10" fill="none"/><path d="M178.2 174.11l9.913-4.18M188.113 169.93l1.336-10.672" stroke-width="1.2" stroke="#00f" stroke-miterlimit="10" fill="none"/><path d="M189.45 159.258l1.34-10.676" stroke-width="1.2" stroke="#000" stroke-miterlimit="10" fill="none"/><path d="M183.355 167.168l1.07-8.543" stroke-width="1.2" stroke="#00f" stroke-miterlimit="10" fill="none"/><path d="M184.426 158.625l1.07-8.54" stroke-width="1.2" stroke="#000" stroke-miterlimit="10" fill="none"/><path d="M185.113 164.43h7v11h-7zm0 0" fill="#fff"/><use xlink:href="#a" x="185.113" y="173.093" fill="#00f"/><path d="M190.79 148.582l-8.58-6.496" stroke-width="1.2" stroke="#000" stroke-miterlimit="10" fill="none"/><path d="M182.21 142.086l-8.577-6.496" stroke-width="1.2" stroke="#00f" stroke-miterlimit="10" fill="none"/><path d="M190.79 148.582l9.913-4.18" stroke-width="1.2" stroke="#000" stroke-miterlimit="10" fill="none"/><path d="M200.703 144.402l9.914-4.18" stroke-width="1.2" stroke="#f00" stroke-miterlimit="10" fill="none"/><path d="M173.633 135.59l-9.91 4.18" stroke-width="1.2" stroke="#00f" stroke-miterlimit="10" fill="none"/><path d="M163.723 139.77l-9.914 4.18" stroke-width="1.2" stroke="#000" stroke-miterlimit="10" fill="none"/><path d="M173.617 141.09l-7.93 3.344" stroke-width="1.2" stroke="#00f" stroke-miterlimit="10" fill="none"/><path d="M165.688 144.434l-7.93 3.343" stroke-width="1.2" stroke="#000" stroke-miterlimit="10" fill="none"/><path d="M170.633 130.09h7v11h-7zm0 0" fill="#fff"/><use xlink:href="#a" x="170.633" y="138.753" fill="#00f"/><path d="M153.81 143.95l-8.58-6.497" stroke-width="1.2" stroke="#000" stroke-miterlimit="10" fill="none"/><path d="M145.23 137.453l-8.578-6.496M136.652 130.957l-9.914 4.18" stroke-width="1.2" stroke="#00f" stroke-miterlimit="10" fill="none"/><path d="M126.738 135.137l-9.914 4.18" stroke-width="1.2" stroke="#000" stroke-miterlimit="10" fill="none"/><path d="M136.652 130.957l1.34-10.676" stroke-width="1.2" stroke="#00f" stroke-miterlimit="10" fill="none"/><path d="M137.992 120.28l1.336-10.675" stroke-width="1.2" stroke="#000" stroke-miterlimit="10" fill="none"/><path d="M133.652 125.457h7v11h-7zm0 0" fill="#fff"/><use xlink:href="#a" x="133.652" y="134.12" fill="#00f"/><path d="M118.355 137.297l-8.578-6.496" stroke-width="1.2" stroke="#000" stroke-miterlimit="10" fill="none"/><path d="M109.777 130.8l-8.574-6.49" stroke-width="1.2" stroke="#f00" stroke-miterlimit="10" fill="none"/><path d="M115.297 141.336l-8.574-6.496" stroke-width="1.2" stroke="#000" stroke-miterlimit="10" fill="none"/><path d="M106.723 134.84l-8.578-6.496" stroke-width="1.2" stroke="#f00" stroke-miterlimit="10" fill="none"/><path d="M91.672 120.824h8v11h-8zm0 0" fill="#fff"/><use xlink:href="#b" x="91.672" y="129.487" fill="#f00"/><path d="M139.328 109.605l-8.36-19.828M152.32 92.453l-12.992 17.152M130.97 89.777l21.35 2.676" stroke-width="1.2" stroke="#000" stroke-miterlimit="10" fill="none"/><path d="M210.617 140.223l8.574 6.496" stroke-width="1.2" stroke="#f00" stroke-miterlimit="10" fill="none"/><path d="M219.19 146.72l8.58 6.49" stroke-width="1.2" stroke="#000" stroke-miterlimit="10" fill="none"/><path d="M206.617 134.723h8v11h-8zm0 0" fill="#fff"/><use xlink:href="#b" x="206.617" y="143.386" fill="#f00"/><path d="M227.77 153.21l-2.676 21.352M232.523 155.977l-2.136 17.082M247.598 144.852l-19.828 8.36M225.094 174.563l17.152 12.992M242.246 187.555l19.828-8.36M242.266 182.055l15.86-6.688M262.074 179.195l2.676-21.35M264.75 157.844l-17.152-12.992M259.977 160.582l-13.723-10.394" stroke-width="1.2" stroke="#000" stroke-miterlimit="10" fill="none"/></g></svg>
